X:355
T:Tolmury fo Pulke
Z: id:dc-reel-256
M:C
L:1/8
K:G Major
D|GBdg BGB2|gfag fdBc|d2gd cdBG|F2AF G2:|!
cA|BedB cBE2|BGG2 DGFA|D2BG AGGA|B^cAF GEGc|!
BGG2 GBAG|FGAc BcAG|B2gB Bdgf|egfd BGB^c|!
d2AB BcAF|G2FG DFGA|B2Bc dcAF|G2FG FD^G:|!

